outputs/icons/image/camera_switch_round.svg

<svg xmlns="http://www.w3.org/2000/svg" width="1200" height="1200" fill="none"><g fill="#000" clip-path="url(#a)"><path d="M800 350h-50l-46.34-46.339a12.5 12.5 0 0 0-8.84-3.661H505.18c-3.32 0-6.497 1.317-8.841 3.661L450 350h-50c-55 0-100 45-100 100v300c0 55 45 100 100 100h400c55 0 100-45 100-100V450c0-55-45-100-100-100M600 700c-55 0-100-45-100-100s45-100 100-100 100 45 100 100-45 100-100 100"/><path d="M448.596 19.791c-9.126 2.418-12.023 13.778-5.348 20.453l187.917 187.917c7.875 7.875 21.34 2.297 21.34-8.839V101.999c220.795 21.987 399.58 187.964 440.94 402.526 4.885 25.335 26.215 44.975 52.02 44.975 29.365 0 52.64-25.24 47.695-54.186-61.095-357.526-419.71-561.591-744.564-475.523M547.5 1098c-220.799-21.985-399.582-187.965-440.943-402.525-4.884-25.335-26.213-44.975-52.016-44.975-29.365 0-52.644 25.24-47.697 54.185 61.092 357.525 419.707 561.59 744.566 475.525 9.125-2.42 12.02-13.78 5.345-20.455L568.84 971.84c-7.875-7.875-21.34-2.3-21.34 8.84z"/></g><defs><clipPath id="a"><path fill="#fff" d="M0 0h1200v1200H0z"/></clipPath></defs></svg>

<svg width="1200" height="1200" viewBox="0 0 1200 1200" fill="none" xmlns="http://www.w3.org/2000/svg"><g clip-path="url(#clip0_238_2764)"><path d="M800 350H750L703.66 303.661C701.315 301.317 698.14 300 694.82 300H505.18C501.86 300 498.683 301.317 496.339 303.661L450 350H400C345 350 300 395 300 450V750C300 805 345 850 400 850H800C855 850 900 805 900 750V450C900 395 855 350 800 350ZM600 700C545 700 500 655 500 600C500 545 545 500 600 500C655 500 700 545 700 600C700 655 655 700 600 700Z" fill="black"/><path d="M448.596 19.791C439.47 22.209 436.573 33.569 443.248 40.244L631.165 228.161C639.04 236.036 652.505 230.458 652.505 219.322V101.999C873.3 123.986 1052.085 289.963 1093.445 504.525C1098.33 529.86 1119.66 549.5 1145.465 549.5C1174.83 549.5 1198.105 524.26 1193.16 495.314C1132.065 137.788 773.45 -66.277 448.596 19.791Z" fill="black"/><path d="M547.5 1098C326.701 1076.015 147.918 910.035 106.557 695.475C101.673 670.14 80.344 650.5 54.541 650.5C25.176 650.5 1.897 675.74 6.844 704.685C67.936 1062.21 426.551 1266.275 751.41 1180.21C760.535 1177.79 763.43 1166.43 756.755 1159.755L568.84 971.84C560.965 963.965 547.5 969.54 547.5 980.68V1098Z" fill="black"/></g><defs><clipPath id="clip0_238_2764"><path width="24" fill="white" d="M0 0H1200V1200H0V0z"/></clipPath></defs></svg>
